src/icons/svg/outline.svg

<svg t="1571276825845" class="icon" viewBox="0 0 1024 1024" version="1.1" xmlns="http://www.w3.org/2000/svg" p-id="1710" width="200" height="200"><path d="M932.90496 68.11648H84.25472c-44.6464 0-80.85504 38.01088-80.85504 84.82816v532.02944c0 46.8992 36.20864 84.86912 80.85504 84.86912h288.03072v97.97632H315.22816v64.26624h-73.728v82.78016h534.07744v-82.78016h-73.64608v-64.26624h-57.09824v-97.97632h288.03072c44.6464 0 80.85504-38.01088 80.85504-84.86912V152.94464c0.04096-46.81728-36.16768-84.82816-80.81408-84.82816z m-7.53664 615.8336H91.79136V154.05056h833.57696v529.89952z"  p-id="1711"></path><path d="M670.80192 282.58304l-53.61664-54.31296-108.58496 110.05952-108.62592-110.05952-53.61664 54.31296 108.62592 110.05952-108.62592 110.10048L399.9744 557.056l108.62592-110.05952 108.58496 110.05952 53.61664-54.31296-108.62592-110.10048z"  p-id="1712"></path></svg>

<svg class="icon" viewBox="0 0 1024 1024" xmlns="http://www.w3.org/2000/svg" width="200" height="200"><path d="M932.905 68.116H84.255c-44.647 0-80.855 38.011-80.855 84.829v532.03c0 46.898 36.208 84.868 80.855 84.868h288.03v97.977h-57.057v64.266H241.5v82.78h534.078v-82.78h-73.646V867.82h-57.099v-97.977h288.031c44.646 0 80.855-38.01 80.855-84.869v-532.03c.041-46.817-36.168-84.828-80.814-84.828zm-7.537 615.834H91.791v-529.9h833.577v529.9z"/><path d="M670.802 282.583l-53.617-54.313L508.6 338.33 399.974 228.27l-53.616 54.313 108.626 110.06-108.626 110.1 53.616 54.313L508.6 446.996l108.585 110.06 53.617-54.313-108.626-110.1z"/></svg>
